src/assets/duotone/AttachSquare.svg

<svg width="24" height="24" viewBox="0 0 24 24"  xmlns="http://www.w3.org/2000/svg">
<path opacity="0.4" d="M16.1898 2H7.81976C4.17976 2 2.00977 4.17 2.00977 7.81V16.18C2.00977 19.82 4.17976 21.99 7.81976 21.99H16.1898C19.8298 21.99 21.9998 19.82 21.9998 16.18V7.81C21.9998 4.17 19.8298 2 16.1898 2Z" />
<path d="M12.1998 17.3799C11.4998 17.3799 10.7898 17.1099 10.2598 16.5799C9.73977 16.0599 9.44977 15.3699 9.44977 14.6399C9.44977 13.9099 9.73977 13.2099 10.2598 12.6999L11.6697 11.2899C11.9597 10.9999 12.4397 10.9999 12.7297 11.2899C13.0197 11.5799 13.0197 12.0599 12.7297 12.3499L11.3198 13.7599C11.0798 13.9999 10.9498 14.3099 10.9498 14.6399C10.9498 14.9699 11.0798 15.2899 11.3198 15.5199C11.8098 16.0099 12.5998 16.0099 13.0898 15.5199L15.3098 13.2999C16.5798 12.0299 16.5798 9.96994 15.3098 8.69994C14.0398 7.42994 11.9798 7.42994 10.7098 8.69994L8.28973 11.1199C7.77973 11.6299 7.49976 12.2999 7.49976 13.0099C7.49976 13.7199 7.77973 14.3999 8.28973 14.8999C8.57973 15.1899 8.57973 15.6699 8.28973 15.9599C7.99973 16.2499 7.51974 16.2499 7.22974 15.9599C6.43974 15.1699 6.00977 14.1199 6.00977 12.9999C6.00977 11.8799 6.43974 10.8299 7.22974 10.0399L9.64978 7.61992C11.4998 5.76992 14.5198 5.76992 16.3698 7.61992C18.2198 9.46992 18.2198 12.4899 16.3698 14.3399L14.1498 16.5599C13.6098 17.1099 12.9098 17.3799 12.1998 17.3799Z" />
</svg>

<?xml version="1.0" encoding="UTF-8"?>
<svg width="24" height="24" viewBox="0 0 24 24" xmlns="http://www.w3.org/2000/svg">
 <path d="m16.19 2h-8.37c-3.64 0-5.81 2.17-5.81 5.81v8.37c0 3.64 2.17 5.81 5.81 5.81h8.37c3.64 0 5.81-2.17 5.81-5.81v-8.37c0-3.64-2.17-5.81-5.81-5.81z" opacity=".4"/>
 <path d="m12.2 17.38c-0.7 0-1.41-0.27-1.94-0.8-0.52003-0.52-0.81003-1.21-0.81003-1.94s0.29-1.43 0.81003-1.94l1.4099-1.41c0.29-0.29 0.77-0.29 1.06 0s0.29 0.77 0 1.06l-1.4099 1.41c-0.24 0.24-0.37 0.55-0.37 0.88s0.13 0.65 0.37 0.88c0.49 0.49 1.28 0.49 1.77 0l2.22-2.22c1.27-1.27 1.27-3.33 0-4.6s-3.33-1.27-4.6 0l-2.4201 2.42c-0.51 0.51-0.78997 1.18-0.78997 1.89s0.27997 1.39 0.78997 1.89c0.29 0.29 0.29 0.77 0 1.06s-0.76999 0.29-1.06 0c-0.79-0.79-1.22-1.84-1.22-2.96s0.42997-2.17 1.22-2.96l2.42-2.42c1.85-1.85 4.87-1.85 6.72 0s1.85 4.87 0 6.72l-2.22 2.22c-0.54 0.55-1.24 0.82-1.95 0.82z"/>
</svg>
